images/icon.svg

<svg aria-hidden="true" focusable="false" data-prefix="fas" data-icon="user-astronaut" class="svg-inline--fa fa-user-astronaut fa-w-14" role="img" xmlns="http://www.w3.org/2000/svg" viewBox="0 0 448 512"><path fill="currentColor" d="M64 224h13.5c24.7 56.5 80.9 96 146.5 96s121.8-39.5 146.5-96H384c8.8 0 16-7.2 16-16v-96c0-8.8-7.2-16-16-16h-13.5C345.8 39.5 289.6 0 224 0S102.2 39.5 77.5 96H64c-8.8 0-16 7.2-16 16v96c0 8.8 7.2 16 16 16zm40-88c0-22.1 21.5-40 48-40h144c26.5 0 48 17.9 48 40v24c0 53-43 96-96 96h-48c-53 0-96-43-96-96v-24zm72 72l12-36 36-12-36-12-12-36-12 36-36 12 36 12 12 36zm151.6 113.4C297.7 340.7 262.2 352 224 352s-73.7-11.3-103.6-30.6C52.9 328.5 0 385 0 454.4v9.6c0 26.5 21.5 48 48 48h80v-64c0-17.7 14.3-32 32-32h128c17.7 0 32 14.3 32 32v64h80c26.5 0 48-21.5 48-48v-9.6c0-69.4-52.9-125.9-120.4-133zM272 448c-8.8 0-16 7.2-16 16s7.2 16 16 16 16-7.2 16-16-7.2-16-16-16zm-96 0c-8.8 0-16 7.2-16 16v48h32v-48c0-8.8-7.2-16-16-16z"></path></svg>

<svg width="448" height="512" viewBox="0 0 448 512" fill="none" xmlns="http://www.w3.org/2000/svg">
<path d="M64 224H77.5C102.2 280.5 158.4 320 224 320C289.6 320 345.8 280.5 370.5 224H384C392.8 224 400 216.8 400 208V112C400 103.2 392.8 96 384 96H370.5C345.8 39.5 289.6 0 224 0C158.4 0 102.2 39.5 77.5 96H64C55.2 96 48 103.2 48 112V208C48 216.8 55.2 224 64 224ZM104 136C104 113.9 125.5 96 152 96H296C322.5 96 344 113.9 344 136V160C344 213 301 256 248 256H200C147 256 104 213 104 160V136ZM176 208L188 172L224 160L188 148L176 112L164 148L128 160L164 172L176 208ZM327.6 321.4C297.7 340.7 262.2 352 224 352C185.8 352 150.3 340.7 120.4 321.4C52.9 328.5 0 385 0 454.4V464C0 490.5 21.5 512 48 512H128V448C128 430.3 142.3 416 160 416H288C305.7 416 320 430.3 320 448V512H400C426.5 512 448 490.5 448 464V454.4C448 385 395.1 328.5 327.6 321.4ZM272 448C263.2 448 256 455.2 256 464C256 472.8 263.2 480 272 480C280.8 480 288 472.8 288 464C288 455.2 280.8 448 272 448ZM176 448C167.2 448 160 455.2 160 464V512H192V464C192 455.2 184.8 448 176 448Z" fill="#8C0DE0"/>
</svg>
